X:1
T:Title
%%score { 1 | 2 }
L:1/8
Q:1/4=90
M:6/8
K:Db
V:1 treble nm="Grand Piano"
V:2 bass 
V:1
 F_F=F ABF | A3 A3 | [Fd][Fc][FB] [FA][GB]F | G6 | GAG EFG | [CB]3 [GB]3 | %6
w: Haldor~Lillenas * * * * *||||||
 [Ge][DGd][EGc] [CGB][CGc][CGB] | [DFA]6 | [Fd]>[Fd][Fd] [Fd][Fc][FB] | [Gc]3 G3 | %10
w: ||||
 B>BB [CGB][CGc][CGB] | [DFA]6 | [Fd]>[Fd][Fd] [Fd][Fd][Fd] | [Af]3 [FA]3 | [=GB][Gc][Gd] ed[_Gc] | %15
w: |||||
 [Fd]6 |] %16
w: |
V:2
 [D,A,D][D,=G,D][D,B,D] [D,F,D][D,_G,D][D,A,D] | [D,F,D]3 [D,F,D]3 | %2
 [D,A,][D,A,][D,A,] [D,D][D,D][D,A,D] | [E,A,C]6 | [A,CE][A,CE][A,CE] [G,A,C][F,A,C][E,A,C] | %5
 [A,,A,]3 [A,,A,]3 | [A,C]A,A, A,,A,,A,, | D,6 | [D,A,]>[D,A,][D,A,] [D,A,][D,A,][D,A,] | %9
 [E,A,]3[K:treble] [A,CE]3 | [A,CG]>[A,DG][A,EG][K:bass] A,,A,,A,, | D,6 | %12
 [D,A,]>[D,A,][D,A,] [D,A,][D,A,][D,A,] | [D,D]3 [D,D]3 | %14
 [E,D][E,C][E,B,][K:treble] [A,G][A,F][K:bass][A,,A,] | [D,A,]6 |] %16

